icon-themes/breeze_svg/cmd/32/showslide.svg

<?xml version="1.0" encoding="UTF-8" standalone="no"?>
<!-- Created with Inkscape (http://www.inkscape.org/) -->

<svg
   xmlns:dc="http://purl.org/dc/elements/1.1/"
   xmlns:cc="http://creativecommons.org/ns#"
   xmlns:rdf="http://www.w3.org/1999/02/22-rdf-syntax-ns#"
   xmlns:svg="http://www.w3.org/2000/svg"
   xmlns="http://www.w3.org/2000/svg"
   xmlns:sodipodi="http://sodipodi.sourceforge.net/DTD/sodipodi-0.dtd"
   xmlns:inkscape="http://www.inkscape.org/namespaces/inkscape"
   width="32"
   height="32"
   id="svg5453"
   version="1.1"
   inkscape:version="0.91 r13725"
   sodipodi:docname="showslide.svg"
   viewBox="0 0 32 32">
  <defs
     id="defs5455" />
  <sodipodi:namedview
     id="base"
     pagecolor="#ffffff"
     bordercolor="#666666"
     borderopacity="1.0"
     inkscape:pageopacity="0"
     inkscape:pageshadow="2"
     inkscape:zoom="25.614943"
     inkscape:cx="17.929401"
     inkscape:cy="16.882224"
     inkscape:document-units="px"
     inkscape:current-layer="layer1"
     showgrid="true"
     fit-margin-top="0"
     fit-margin-left="0"
     fit-margin-right="0"
     fit-margin-bottom="0"
     inkscape:window-width="1883"
     inkscape:window-height="1051"
     inkscape:window-x="33"
     inkscape:window-y="0"
     inkscape:window-maximized="1"
     inkscape:showpageshadow="false"
     borderlayer="true"
     showguides="true"
     inkscape:guide-bbox="true"
     inkscape:object-nodes="true"
     inkscape:snap-bbox="true"
     inkscape:snap-global="true">
    <inkscape:grid
       type="xygrid"
       id="grid4063" />
    <sodipodi:guide
       position="4,24"
       orientation="28,0"
       id="guide4280" />
    <sodipodi:guide
       position="13,4"
       orientation="0,28"
       id="guide4282" />
    <sodipodi:guide
       position="28,25"
       orientation="-28,0"
       id="guide4284" />
    <sodipodi:guide
       position="12,28"
       orientation="0,-28"
       id="guide4286" />
  </sodipodi:namedview>
  <metadata
     id="metadata5458">
    <rdf:RDF>
      <cc:Work
         rdf:about="">
        <dc:format>image/svg+xml</dc:format>
        <dc:type
           rdf:resource="http://purl.org/dc/dcmitype/StillImage" />
        <dc:title></dc:title>
      </cc:Work>
    </rdf:RDF>
  </metadata>
  <g
     inkscape:label="Capa 1"
     inkscape:groupmode="layer"
     id="layer1"
     transform="translate(-384.57143,-515.798)">
    <path
       style="color:#000000;clip-rule:nonzero;display:inline;overflow:visible;visibility:visible;opacity:1;isolation:auto;mix-blend-mode:normal;color-interpolation:sRGB;color-interpolation-filters:linearRGB;solid-color:#000000;solid-opacity:1;fill:#4d4d4d;fill-opacity:1;fill-rule:evenodd;stroke:none;stroke-width:4;stroke-linecap:square;stroke-linejoin:miter;stroke-miterlimit:4;stroke-dasharray:none;stroke-dashoffset:0;stroke-opacity:0.4848485;color-rendering:auto;image-rendering:auto;shape-rendering:auto;text-rendering:auto;enable-background:accumulate"
       d="m 3,4 0,18 26,0 0,-18 z m 1,1 24,0 0,16 -24,0 z m 9,18 0,4 -2,0 0,1 10,0 0,-1 -2,0 0,-4 -1,0 0,4 -4,0 0,-4 z"
       transform="translate(384.57143,515.798)"
       id="rect5418"
       inkscape:connector-curvature="0"
       sodipodi:nodetypes="ccccccccccccccccccccccc" />
    <g
       transform="translate(-29.142862,-10.992793)"
       id="layer1-9"
       inkscape:label="Capa 1">
      <g
         inkscape:label="Capa 1"
         id="layer1-0"
         transform="matrix(0.75,0,0,0.74999813,421.46429,-241.22897)">
        <g
           inkscape:label="Capa 1"
           id="layer1-6"
           transform="translate(6.2937501e-7,-2.041003e-4)">
          <path
             sodipodi:nodetypes="ccccccccc"
             inkscape:connector-curvature="0"
             id="rect4113"
             d="m 3.0000052,1042.5625 3.8787832,3.84 0.9697104,0.96 1.4545434,-1.44 9.6969568,-9.6001 -0.969696,-0.96 -10.1818188,10.0801 -3.8787831,-3.84 z"
             style="fill:#4d4d4d;fill-opacity:1;stroke:none" />
        </g>
      </g>
    </g>
  </g>
</svg>

<svg xmlns="http://www.w3.org/2000/svg" viewBox="0 0 32 32">
 <path 
     style="fill:#4d4d4d" 
     d="M 3 4 L 3 22 L 29 22 L 29 4 L 3 4 z M 4 5 L 28 5 L 28 21 L 4 21 L 4 5 z M 21.273438 8.5 L 13.636719 16.060547 L 10.726562 13.179688 L 10 13.900391 L 12.908203 16.779297 L 13.636719 17.5 L 14.726562 16.419922 L 22 9.2207031 L 21.273438 8.5 z M 13 23 L 13 27 L 11 27 L 11 28 L 21 28 L 21 27 L 19 27 L 19 23 L 18 23 L 18 27 L 14 27 L 14 23 L 13 23 z "
     />
</svg>
